X:1
%
T:Waltz [7]
M:3/4
L:1/8
R:Waltz
S:James Goodman music manuscript collection (mid-19th cent., County Cork, p. 90)
F: http://goodman.itma.ie/volume-one#?c=0&m=0&s=0&cv=93&z=517.4729%2C649.5505%2C7374.2874%2C4466.6667Z:AK/Fiddler's Companion
K:G
D2G2B2|c4 A2|G2c2e2|e6|D2G2B2|c4 AF|
A2G2B2|D6|D2G2B2|c4 AF|G2 c2e2|d4 e2|
d2c2B2|A4 B2|c2E2A2|G6::d2e2d2|d2e2f2|
g2f2e2|d4 Bc|d2e2d2|g2f2e2|d4 z2|D2G2B2|
c4 AF|A2c2e2|d4e2|d2c2B2|A4 B2|c2E2A2|G6:|]

